; generated by PrusaSlicer 2.0.0+win64 on 2019-06-10 at 20:43:32

; 

; external perimeters extrusion width = 0.60mm
; perimeters extrusion width = 0.50mm
; infill extrusion width = 0.50mm
; solid infill extrusion width = 0.50mm
; top infill extrusion width = 0.45mm
; first layer extrusion width = 0.42mm

M73 P0 R93
M73 Q0 S93
M201 X1000 Y1000 Z1000 E5000 ; sets maximum accelerations, mm/sec^2
M203 X200 Y200 Z12 E120 ; sets maximum feedrates, mm/sec
M204 P1250 R1250 T1250 ; sets acceleration (P, T) and retract acceleration (R), mm/sec^2
M205 X8.00 Y8.00 Z0.40 E1.50 ; sets the jerk limits, mm/sec
M205 S0 T0 ; sets the minimum extruding and travel feed rate, mm/sec
M107
M115 U3.7.1 ; tell printer latest fw version
G90 ; use absolute coordinates
M83 ; extruder relative mode
M104 S215 ; set extruder temp
M140 S60 ; set bed temp
M190 S60 ; wait for bed temp
M109 S215 ; wait for extruder temp
G28 W ; home all without mesh bed level
G80 ; mesh bed leveling
G1 Y-3.0 F1000.0 ; go outside print area
G92 E0.0
G1 X60.0 E9.0 F1000.0 ; intro line
M73 Q0 S93
M73 P0 R93
G1 X100.0 E12.5 F1000.0 ; intro line
G92 E0.0
M221 S95
M900 K30 ; Filament gcode
G21 ; set units to millimeters
G90 ; use absolute coordinates
M83 ; use relative distances for extrusion
;BEFORE_LAYER_CHANGE
G92 E0.0
;0.2


G1 E-0.80000 F2100.00000
G1 Z0.600 F10800.000
;AFTER_LAYER_CHANGE
;0.2
G1 X133.210 Y126.894
G1 Z0.200
G1 E0.80000 F2100.00000
M204 S1000
G1 F1200
G1 X132.471 Y127.129 E0.02431
G1 X131.659 Y127.159 E0.02549
G1 X130.787 Y126.956 E0.02805
G1 X129.836 Y126.480 E0.03337
G1 X128.606 Y125.584 E0.04770
G1 X94.646 Y96.481 E1.40230
G1 X93.462 Y95.293 E0.05261
G1 X92.416 Y93.853 E0.05579
G1 X91.996 Y93.104 E0.02691
G1 X91.384 Y91.681 E0.04858
G1 X90.930 Y89.992 E0.05484
G1 X90.737 Y88.171 E0.05740
G1 X90.803 Y86.613 E0.04888
G1 X90.942 Y85.692 E0.02922
G1 X91.423 Y83.959 E0.05639
G1 X92.057 Y82.537 E0.04879
G1 X92.528 Y81.729 E0.02934
G1 X93.058 Y80.973 E0.02895
G1 X94.081 Y79.805 E0.04870
G1 X95.457 Y78.643 E0.05648
G1 X96.234 Y78.138 E0.02903
G1 X97.619 Y77.442 E0.04861
G1 X99.388 Y76.870 E0.05830
G1 X100.925 Y76.627 E0.04878
G1 X101.845 Y76.591 E0.02886
G1 X157.143 Y76.587 E1.73384
G1 X160.606 Y76.629 E0.10859
G1 X161.638 Y76.765 E0.03263
G1 X162.706 Y77.011 E0.03437
G1 X164.426 Y77.643 E0.05745
G1 X165.401 Y78.149 E0.03445
G1 X166.320 Y78.744 E0.03431
G1 X167.758 Y79.958 E0.05900
G1 X168.525 Y80.801 E0.03573
G1 X169.624 Y82.373 E0.06017
G1 X170.137 Y83.355 E0.03475
G1 X170.791 Y85.106 E0.05858
G1 X171.073 Y86.389 E0.04119
G1 X171.176 Y87.676 E0.04048
G1 X171.072 Y88.707 E0.03250
G1 X170.749 Y89.706 E0.03293
G1 X170.114 Y90.639 E0.03537
G1 X133.860 Y126.442 E1.59761
G1 X133.259 Y126.860 E0.02294
G1 F8640
G1 X132.471 Y127.129 E-0.19230
G1 X131.659 Y127.159 E-0.18768
G1 X130.787 Y126.956 E-0.20659
G1 X130.116 Y126.620 E-0.17342
G1 E-0.04000 F2100.00000
G1 Z0.800 F10800.000
G1 X130.711 Y122.977
G1 Z0.200
G1 E0.80000 F2100.00000
G1 F1200
G1 X130.652 Y122.960 E0.00191
G1 X130.212 Y122.647 E0.01694
G1 X96.823 Y94.029 E1.37881
G1 X96.371 Y93.611 E0.01931
G1 X95.959 Y93.167 E0.01899
G1 X95.581 Y92.692 E0.01903
G1 X95.240 Y92.189 E0.01905
G1 X94.937 Y91.661 E0.01908
G1 X94.675 Y91.111 E0.01911
G1 X94.454 Y90.541 E0.01915
G1 X94.276 Y89.956 E0.01917
G1 X94.142 Y89.359 E0.01918
G1 X94.053 Y88.754 E0.01918
G1 X94.010 Y88.144 E0.01917
G1 X94.015 Y87.533 E0.01917
G1 X94.065 Y86.923 E0.01920
G1 X94.161 Y86.318 E0.01920
G1 X94.301 Y85.723 E0.01918
G1 X94.484 Y85.141 E0.01914
G1 X94.711 Y84.575 E0.01911
G1 X94.980 Y84.028 E0.01910
G1 X95.290 Y83.504 E0.01908
G1 X95.637 Y83.005 E0.01906
G1 X96.019 Y82.535 E0.01902
G1 X96.432 Y82.098 E0.01883
G1 X97.008 Y81.593 E0.02403
G1 X97.359 Y81.322 E0.01390
G1 X97.863 Y80.992 E0.01887
G1 X98.389 Y80.702 E0.01885
G1 X98.936 Y80.453 E0.01884
G1 X99.500 Y80.247 E0.01881
G1 X100.077 Y80.085 E0.01878
G1 X100.663 Y79.968 E0.01875
G1 X101.257 Y79.898 E0.01875
G1 X101.672 Y79.882 E0.01302
G1 X159.613 Y79.877 E1.81671
G1 X160.344 Y79.907 E0.02295
G1 X161.056 Y80.001 E0.02250
G1 X161.757 Y80.158 E0.02253
G1 X162.442 Y80.376 E0.02255
G1 X163.107 Y80.653 E0.02258
G1 X163.746 Y80.988 E0.02263
G1 X164.355 Y81.378 E0.02267
G1 X164.929 Y81.819 E0.02270
G1 X165.464 Y82.309 E0.02273
G1 X165.955 Y82.844 E0.02278
G1 X166.399 Y83.421 E0.02284
G1 X166.794 Y84.036 E0.02289
G1 X167.136 Y84.682 E0.02293
G1 X167.422 Y85.356 E0.02295
G1 X167.650 Y86.053 E0.02299
G1 X167.812 Y86.738 E0.02210
G1 X167.831 Y87.140 E0.01261
G1 X167.814 Y87.188 E0.00158
G1 X166.500 Y87.172 E0.04118
G1 X166.308 Y87.153 E0.00607
G1 X166.049 Y86.173 E0.03179
G1 X165.886 Y85.665 E0.01672
G1 X165.677 Y85.166 E0.01697
G1 X165.427 Y84.687 E0.01694
G1 X165.138 Y84.232 E0.01691
G1 X164.812 Y83.803 E0.01689
G1 X164.450 Y83.405 E0.01688
G1 X164.055 Y83.040 E0.01686
G1 X163.630 Y82.712 E0.01681
G1 X163.180 Y82.423 E0.01678
G1 X162.707 Y82.174 E0.01675
G1 X162.215 Y81.967 E0.01674
G1 X161.707 Y81.804 E0.01673
G1 X161.187 Y81.688 E0.01671
G1 X160.655 Y81.617 E0.01681
G1 X160.136 Y81.600 E0.01627
G1 X155.738 Y81.595 E0.13790
G1 X101.833 Y81.600 E1.69017
G1 X100.918 Y81.666 E0.02875
G1 X100.000 Y81.884 E0.02958
G1 X99.128 Y82.243 E0.02957
G1 X98.320 Y82.732 E0.02962
G1 X97.593 Y83.341 E0.02973
G1 X96.967 Y84.057 E0.02981
G1 X96.455 Y84.860 E0.02987
G1 X96.068 Y85.734 E0.02996
G1 X95.817 Y86.658 E0.03002
G1 X95.708 Y87.608 E0.02998
G1 X95.735 Y88.563 E0.02998
G1 X95.905 Y89.507 E0.03005
G1 X96.216 Y90.412 E0.03000
G1 X96.658 Y91.259 E0.02995
G1 X97.219 Y92.026 E0.02981
G1 X97.873 Y92.685 E0.02911
G1 X131.283 Y121.320 E1.37967
G1 X131.664 Y121.732 E0.01760
G1 X131.691 Y121.784 E0.00182
G1 X130.749 Y122.931 E0.04654
G1 X130.844 Y123.409 F10800.000
G1 F1200
G1 X130.485 Y123.304 E0.01172
G1 X129.979 Y122.944 E0.01946
G1 X96.572 Y94.311 E1.37957
G1 X96.104 Y93.878 E0.01999
G1 X95.672 Y93.413 E0.01989
G1 X95.277 Y92.915 E0.01992
G1 X94.919 Y92.389 E0.01995
G1 X94.603 Y91.836 E0.01997
G1 X94.329 Y91.260 E0.02000
G1 X94.098 Y90.664 E0.02003
G1 X93.912 Y90.053 E0.02005
G1 X93.771 Y89.428 E0.02006
G1 X93.678 Y88.795 E0.02007
G1 X93.633 Y88.156 E0.02007
G1 X93.638 Y87.516 E0.02007
G1 X93.691 Y86.878 E0.02008
G1 X93.790 Y86.245 E0.02007
G1 X93.937 Y85.623 E0.02006
G1 X94.129 Y85.013 E0.02003
G1 X94.367 Y84.421 E0.02001
G1 X94.648 Y83.849 E0.01999
G1 X94.972 Y83.300 E0.01997
G1 X95.335 Y82.778 E0.01994
G1 X95.736 Y82.286 E0.01991
G1 X96.171 Y81.827 E0.01982
G1 X96.769 Y81.302 E0.02495
G1 X97.140 Y81.014 E0.01473
G1 X97.668 Y80.669 E0.01978
G1 X98.220 Y80.365 E0.01976
G1 X98.793 Y80.104 E0.01974
G1 X99.384 Y79.888 E0.01972
G1 X99.989 Y79.718 E0.01970
G1 X100.604 Y79.596 E0.01967
G1 X101.227 Y79.522 E0.01967
G1 X101.664 Y79.505 E0.01371
G1 X159.622 Y79.500 E1.81722
G1 X160.377 Y79.531 E0.02370
G1 X161.122 Y79.630 E0.02355
G1 X161.855 Y79.793 E0.02357
G1 X162.572 Y80.021 E0.02359
G1 X163.267 Y80.312 E0.02361
G1 X163.936 Y80.662 E0.02365
G1 X164.572 Y81.069 E0.02369
G1 X165.172 Y81.530 E0.02372
G1 X165.731 Y82.042 E0.02376
G1 X166.244 Y82.601 E0.02380
G1 X166.708 Y83.204 E0.02385
G1 X167.120 Y83.845 E0.02389
G1 X167.477 Y84.520 E0.02393
G1 X167.775 Y85.223 E0.02396
G1 X168.013 Y85.950 E0.02399
G1 X168.187 Y86.686 E0.02369
G1 X168.211 Y87.198 E0.01609
G1 X168.101 Y87.501 E0.01011
G1 X168.017 Y87.567 E0.00336
G1 X166.480 Y87.548 E0.04818
G1 X166.176 Y87.519 E0.00959
G1 X166.043 Y87.444 E0.00478
G1 X165.975 Y87.342 E0.00386
G1 X165.933 Y87.225 E0.00388
G1 X165.686 Y86.278 E0.03069
G1 X165.532 Y85.796 E0.01588
G1 X165.335 Y85.326 E0.01596
G1 X165.100 Y84.876 E0.01593
G1 X164.828 Y84.448 E0.01590
G1 X164.522 Y84.045 E0.01588
G1 X164.182 Y83.671 E0.01585
G1 X163.811 Y83.328 E0.01582
G1 X163.413 Y83.020 E0.01578
G1 X162.990 Y82.749 E0.01575
G1 X162.546 Y82.515 E0.01573
G1 X162.084 Y82.321 E0.01570
G1 X161.608 Y82.169 E0.01569
G1 X161.120 Y82.059 E0.01567
G1 X160.624 Y81.993 E0.01570
G1 X160.130 Y81.977 E0.01550
G1 X155.738 Y81.972 E0.13770
G1 X101.846 Y81.977 E1.68974
G1 X100.976 Y82.040 E0.02737
G1 X100.116 Y82.244 E0.02770
G1 X99.298 Y82.581 E0.02773
G1 X98.540 Y83.040 E0.02780
G1 X97.858 Y83.611 E0.02790
G1 X97.270 Y84.284 E0.02800
G1 X96.789 Y85.039 E0.02808
G1 X96.425 Y85.860 E0.02817
G1 X96.189 Y86.729 E0.02823
G1 X96.086 Y87.624 E0.02824
G1 X96.112 Y88.524 E0.02825
G1 X96.271 Y89.412 E0.02826
G1 X96.564 Y90.263 E0.02822
G1 X96.979 Y91.059 E0.02815
G1 X97.507 Y91.781 E0.02804
G1 X98.130 Y92.409 E0.02773
G1 X131.545 Y121.048 E1.37988
G1 X131.977 Y121.515 E0.01993
G1 X132.109 Y121.775 E0.00914
G1 X132.118 Y121.854 E0.00251
G1 X130.882 Y123.363 E0.06116
G1 X130.621 Y123.109 F10800.000
G1 X130.736 Y122.768
G1 F1200
G1 X118.370 Y110.402 E0.54928
G1 F8640
G1 X120.697 Y112.729 E-0.76000
G1 E-0.04000 F2100.00000
G1 Z0.800 F10800.000
G1 X117.037 Y111.205
G1 Z0.200
G1 E0.80000 F2100.00000
G1 F1200
G1 X103.420 Y97.588 E0.60484
G1 F8640
G1 X105.747 Y99.916 E-0.76000
G1 E-0.04000 F2100.00000
G1 Z0.800 F10800.000
G1 X102.085 Y98.390
G1 Z0.200
G1 E0.80000 F2100.00000
G1 F1200
G1 X95.155 Y91.460 E0.30782
G1 X94.935 Y90.999 E0.01605
G1 X94.750 Y90.521 E0.01609
G1 X105.823 Y101.594 E0.49183
G1 F8640
G1 X103.495 Y99.266 E-0.76000
G1 E-0.04000 F2100.00000
G1 Z0.800 F10800.000
G1 X107.157 Y100.792
G1 Z0.200
G1 E0.80000 F2100.00000
G1 F1200
G1 X120.775 Y114.409 E0.60487
G1 F8640
G1 X118.447 Y112.082 E-0.76000
G1 E-0.04000 F2100.00000
G1 Z0.800 F10800.000
G1 X122.107 Y113.605
G1 Z0.200
G1 E0.80000 F2100.00000
G1 F1200
G1 X130.977 Y122.475 E0.39397
G1 X131.218 Y122.181 F10800.000
G1 F1200
G1 X125.845 Y116.808 E0.23866
G1 F8640
G1 X128.172 Y119.136 E-0.76000
G1 E-0.04000 F2100.00000
G1 Z0.800 F10800.000
G1 X124.513 Y117.613
G1 Z0.200
G1 E0.80000 F2100.00000
G1 F1200
G1 X110.895 Y103.995 E0.60489
G1 F8640
G1 X113.222 Y106.322 E-0.76000
G1 E-0.04000 F2100.00000
G1 Z0.800 F10800.000
G1 X109.561 Y104.798
G1 Z0.200
G1 E0.80000 F2100.00000
G1 F1200
G1 X94.522 Y89.759 E0.66799
G1 X94.389 Y89.092 E0.02137
G1 X96.103 Y90.805 E0.07612
G1 X95.956 Y90.524 E0.00997
G1 X95.747 Y89.915 E0.02022
G1 X94.318 Y88.487 E0.06345
G1 X94.295 Y87.929 E0.01752
G1 X95.562 Y89.196 E0.05629
G1 X95.452 Y88.552 E0.02052
G1 X94.309 Y87.409 E0.05079
G1 X94.352 Y86.918 E0.01547
G1 X95.436 Y88.002 E0.04816
G1 X95.425 Y87.596 E0.01278
G1 X95.439 Y87.471 E0.00394
G1 X94.425 Y86.457 E0.04504
G1 X94.521 Y86.019 E0.01408
G1 X95.494 Y86.992 E0.04321
G1 X95.561 Y86.524 E0.01484
G1 X94.636 Y85.599 E0.04107
G1 X94.767 Y85.196 E0.01332
G1 X95.675 Y86.104 E0.04033
G1 X95.789 Y85.684 E0.01367
G1 X94.920 Y84.815 E0.03860
G1 X95.088 Y84.449 E0.01264
G1 X95.948 Y85.308 E0.03816
G1 X96.112 Y84.938 E0.01272
G1 X95.269 Y84.096 E0.03742
G1 X95.467 Y83.760 E0.01225
G1 X96.294 Y84.587 E0.03674
G1 X96.502 Y84.261 E0.01215
G1 X95.680 Y83.438 E0.03652
G1 X95.902 Y83.127 E0.01203
G1 X96.710 Y83.934 E0.03587
G1 X96.953 Y83.643 E0.01191
G1 X96.142 Y82.832 E0.03604
G1 X96.394 Y82.550 E0.01188
G1 X97.203 Y83.358 E0.03590
G1 X97.461 Y83.083 E0.01187
G1 X96.656 Y82.278 E0.03574
G1 X96.941 Y82.028 E0.01189
G1 X97.752 Y82.839 E0.03602
G1 X98.042 Y82.596 E0.01191
G1 X97.228 Y81.781 E0.03619
G1 X97.529 Y81.548 E0.01196
G1 X98.359 Y82.378 E0.03684
G1 X98.692 Y82.176 E0.01222
G1 X97.852 Y81.337 E0.03729
G1 X98.186 Y81.137 E0.01223
G1 X99.028 Y81.978 E0.03739
G1 X99.406 Y81.823 E0.01285
G1 X98.532 Y80.948 E0.03886
G1 X98.899 Y80.781 E0.01267
G1 X99.785 Y81.667 E0.03936
G1 X99.913 Y81.614 E0.00436
G1 X100.198 Y81.546 E0.00921
G1 X99.280 Y80.628 E0.04078
G1 X99.677 Y80.491 E0.01319
G1 X100.630 Y81.444 E0.04232
G1 X100.875 Y81.385 E0.00791
G1 X101.090 Y81.370 E0.00678
G1 X100.094 Y80.374 E0.04424
G1 X100.536 Y80.282 E0.01419
G1 X101.589 Y81.334 E0.04674
G1 X102.106 Y81.317 E0.01626
G1 X101.002 Y80.213 E0.04904
G1 X101.495 Y80.172 E0.01553
G1 X102.640 Y81.317 E0.05088
G1 X103.174 Y81.317 E0.01678
G1 X102.022 Y80.164 E0.05121
G1 X102.556 Y80.164 E0.01678
G1 X103.709 Y81.317 E0.05121
G1 X104.243 Y81.317 E0.01678
G1 X103.090 Y80.164 E0.05121
G1 X103.624 Y80.164 E0.01678
G1 X104.777 Y81.317 E0.05121
G1 X105.311 Y81.317 E0.01678
G1 X104.158 Y80.164 E0.05121
G1 X104.692 Y80.164 E0.01678
G1 X105.845 Y81.317 E0.05121
G1 X106.379 Y81.317 E0.01678
G1 X105.226 Y80.164 E0.05121
G1 X105.761 Y80.164 E0.01678
G1 X106.913 Y81.317 E0.05121
G1 X107.448 Y81.317 E0.01678
G1 X106.295 Y80.164 E0.05121
G1 X106.829 Y80.164 E0.01678
G1 X107.982 Y81.317 E0.05120
G1 X108.516 Y81.317 E0.01678
G1 X107.363 Y80.164 E0.05120
G1 X107.897 Y80.164 E0.01678
G1 X109.050 Y81.317 E0.05120
G1 X109.584 Y81.317 E0.01678
G1 X108.431 Y80.164 E0.05120
G1 X108.965 Y80.164 E0.01678
G1 X110.118 Y81.317 E0.05120
G1 X110.652 Y81.317 E0.01678
G1 X109.500 Y80.164 E0.05120
G1 X110.034 Y80.164 E0.01678
G1 X111.186 Y81.317 E0.05120
G1 X111.721 Y81.316 E0.01678
G1 X110.568 Y80.164 E0.05120
G1 X111.102 Y80.164 E0.01678
G1 X112.255 Y81.316 E0.05120
G1 X112.789 Y81.316 E0.01678
G1 X111.636 Y80.164 E0.05120
G1 X112.170 Y80.164 E0.01678
G1 X113.323 Y81.316 E0.05120
G1 X113.857 Y81.316 E0.01678
G1 X112.704 Y80.164 E0.05120
G1 X113.239 Y80.163 E0.01678
G1 X114.391 Y81.316 E0.05120
G1 X114.925 Y81.316 E0.01678
G1 X113.773 Y80.163 E0.05120
G1 X114.307 Y80.163 E0.01678
G1 X115.460 Y81.316 E0.05120
G1 X115.994 Y81.316 E0.01678
G1 X114.841 Y80.163 E0.05120
G1 X115.375 Y80.163 E0.01678
G1 X116.528 Y81.316 E0.05120
G1 X117.062 Y81.316 E0.01678
G1 X115.909 Y80.163 E0.05120
G1 X116.443 Y80.163 E0.01678
G1 X117.596 Y81.316 E0.05120
G1 X118.130 Y81.316 E0.01678
G1 X116.978 Y80.163 E0.05120
G1 X117.512 Y80.163 E0.01678
G1 X118.664 Y81.316 E0.05120
G1 X119.199 Y81.316 E0.01678
G1 X118.046 Y80.163 E0.05120
G1 X118.580 Y80.163 E0.01678
G1 X119.733 Y81.316 E0.05120
G1 X120.267 Y81.316 E0.01678
G1 X119.114 Y80.163 E0.05120
G1 X119.648 Y80.163 E0.01678
G1 X120.801 Y81.316 E0.05120
G1 X121.335 Y81.316 E0.01678
G1 X120.182 Y80.163 E0.05120
G1 X120.717 Y80.163 E0.01678
G1 X121.869 Y81.316 E0.05120
G1 X122.403 Y81.315 E0.01678
G1 X121.251 Y80.163 E0.05120
G1 X121.785 Y80.163 E0.01678
G1 X122.938 Y81.315 E0.05120
G1 X123.472 Y81.315 E0.01678
G1 X122.319 Y80.163 E0.05120
G1 X122.853 Y80.163 E0.01678
G1 X124.006 Y81.315 E0.05120
G1 X124.540 Y81.315 E0.01678
G1 X123.387 Y80.163 E0.05120
G1 X123.921 Y80.163 E0.01678
G1 X125.074 Y81.315 E0.05120
G1 X125.608 Y81.315 E0.01678
G1 X124.456 Y80.163 E0.05120
G1 X124.990 Y80.162 E0.01678
G1 X126.142 Y81.315 E0.05120
G1 X126.677 Y81.315 E0.01678
G1 X125.524 Y80.162 E0.05120
G1 X126.058 Y80.162 E0.01678
G1 X127.211 Y81.315 E0.05120
G1 X127.745 Y81.315 E0.01678
G1 X126.592 Y80.162 E0.05120
G1 X127.126 Y80.162 E0.01678
G1 X128.279 Y81.315 E0.05120
M73 Q1 S92
G1 X128.813 Y81.315 E0.01678
G1 X127.660 Y80.162 E0.05120
G1 X128.195 Y80.162 E0.01678
G1 X129.347 Y81.315 E0.05120
G1 X129.881 Y81.315 E0.01678
G1 X128.729 Y80.162 E0.05120
G1 X129.263 Y80.162 E0.01678
G1 X130.415 Y81.315 E0.05120
M73 P1 R92
G1 X130.950 Y81.315 E0.01678
G1 X129.797 Y80.162 E0.05120
G1 X130.331 Y80.162 E0.01678
G1 X131.484 Y81.315 E0.05120
G1 X132.018 Y81.315 E0.01678
G1 X130.865 Y80.162 E0.05120
G1 X131.399 Y80.162 E0.01678
G1 X132.552 Y81.315 E0.05120
G1 X133.086 Y81.314 E0.01678
G1 X131.934 Y80.162 E0.05120
G1 X132.468 Y80.162 E0.01678
G1 X133.620 Y81.314 E0.05120
G1 X134.154 Y81.314 E0.01678
G1 X133.002 Y80.162 E0.05120
G1 X133.536 Y80.162 E0.01678
G1 X134.689 Y81.314 E0.05119
G1 X135.223 Y81.314 E0.01678
G1 X134.070 Y80.162 E0.05119
G1 X134.604 Y80.162 E0.01678
G1 X135.757 Y81.314 E0.05119
G1 X136.291 Y81.314 E0.01678
G1 X135.138 Y80.162 E0.05119
G1 X135.673 Y80.162 E0.01678
G1 X136.825 Y81.314 E0.05119
G1 X137.359 Y81.314 E0.01678
G1 X136.207 Y80.162 E0.05119
G1 X136.741 Y80.161 E0.01678
G1 X137.893 Y81.314 E0.05119
G1 X138.428 Y81.314 E0.01678
G1 X137.275 Y80.161 E0.05119
G1 X137.809 Y80.161 E0.01678
G1 X138.962 Y81.314 E0.05119
G1 X139.496 Y81.314 E0.01678
G1 X138.343 Y80.161 E0.05119
G1 X138.877 Y80.161 E0.01678
G1 X140.030 Y81.314 E0.05119
G1 X140.564 Y81.314 E0.01678
G1 X139.412 Y80.161 E0.05119
G1 X139.946 Y80.161 E0.01678
G1 X141.098 Y81.314 E0.05119
G1 X141.632 Y81.314 E0.01678
G1 X140.480 Y80.161 E0.05119
G1 X141.014 Y80.161 E0.01678
